public/home/dao-it/icons/aave.svg

<svg width="41" height="40" viewBox="0 0 41 40" fill="none" xmlns="http://www.w3.org/2000/svg">
<mask id="mask0_352_1968" style="mask-type:luminance" maskUnits="userSpaceOnUse" x="0" y="0" width="41" height="40">
<path d="M40.518 0V39.893H0.625V0H40.518Z" fill="white"/>
</mask>
<g mask="url(#mask0_352_1968)">
<path d="M20.625 0C24.5806 0 28.4474 1.17298 31.7364 3.37061C35.0254 5.56824 37.5888 8.69181 39.1026 12.3463C40.6163 16.0009 41.0124 20.0222 40.2407 23.9018C39.469 27.7814 37.5642 31.3451 34.7671 34.1421C31.9701 36.9392 28.4064 38.844 24.5268 39.6157C20.6472 40.3874 16.6259 39.9913 12.9713 38.4776C9.31681 36.9638 6.19324 34.4004 3.99561 31.1114C1.79798 27.8224 0.625 23.9556 0.625 20C0.625 14.6957 2.73214 9.60859 6.48286 5.85786C10.2336 2.10714 15.3207 0 20.625 0Z" fill="#DFE225"/>
</g>
<path d="M29.2703 27.3444L22.6109 11.2385C22.5792 11.0588 22.507 10.8887 22.3997 10.7412C22.2924 10.5937 22.1528 10.4726 21.9916 10.3871C21.6855 10.1919 21.3433 10.0602 20.9852 10H20.366C20.0044 10.0277 19.6586 10.1594 19.3702 10.3791C19.0818 10.5989 18.863 10.8973 18.7403 11.2385L15.8753 18.2851H13.7066C13.3857 18.3066 13.0835 18.4435 12.8557 18.6704C12.6279 18.8974 12.4899 19.1991 12.4672 19.5199C12.489 19.8412 12.6265 20.1437 12.8542 20.3714C13.0819 20.5991 13.3844 20.7366 13.7057 20.7584H14.868L12.08 27.4985C12.0171 27.6447 11.9906 27.804 12.0029 27.9627C11.9984 28.2986 12.1077 28.6262 12.313 28.8921C12.3493 28.9631 12.4049 29.0225 12.4733 29.0636C12.5418 29.1046 12.6204 29.1256 12.7002 29.1242C12.8464 29.1871 13.0057 29.2136 13.1644 29.2012C13.4148 29.1956 13.6577 29.1147 13.8616 28.9691C14.0803 28.8194 14.2434 28.6018 14.3258 28.3499L17.3459 20.762H19.5137C19.8357 20.7403 20.1389 20.6024 20.3669 20.3739C20.5948 20.1455 20.7321 19.842 20.7531 19.5199C20.7313 19.1986 20.5938 18.8962 20.3661 18.6685C20.1384 18.4408 19.8359 18.3033 19.5146 18.2814H18.3496L20.6724 12.4743L27.019 28.2701C27.1014 28.522 27.2646 28.7396 27.4832 28.8893C27.6871 29.0349 27.93 29.1158 28.1805 29.1214C28.3392 29.1338 28.4985 29.1073 28.6447 29.0444C28.7835 28.9846 28.9137 28.9066 29.0318 28.8123C29.1442 28.6868 29.2297 28.5395 29.283 28.3797C29.3364 28.2199 29.3564 28.0508 29.3419 27.8829C29.3706 27.7935 29.379 27.6988 29.3666 27.6056C29.3542 27.5125 29.3213 27.4233 29.2703 27.3444Z" fill="#242424"/>
</svg>

<svg width="41" height="40" viewBox="0 0 41 40" fill="none" xmlns="http://www.w3.org/2000/svg"><mask id="a" style="mask-type:luminance" maskUnits="userSpaceOnUse" x="0" y="0" width="41" height="40"><path d="M40.518 0v39.893H.625V0z" fill="#fff"/></mask><g mask="url(#a)"><path d="M20.625 0a20 20 0 1 1 0 40 20 20 0 0 1 0-40" fill="#DFE225"/></g><path d="M29.27 27.344 22.61 11.24a1.2 1.2 0 0 0-.618-.852A2.7 2.7 0 0 0 20.985 10h-.619a1.88 1.88 0 0 0-1.626 1.239l-2.865 7.046h-2.168a1.33 1.33 0 0 0-1.24 1.235 1.33 1.33 0 0 0 1.239 1.238h1.162l-2.788 6.74a1 1 0 0 0-.077.465 1.5 1.5 0 0 0 .31.93.43.43 0 0 0 .387.231c.146.063.306.09.464.077.25-.005.494-.086.698-.232a1.2 1.2 0 0 0 .464-.62l3.02-7.587h2.168a1.33 1.33 0 0 0 1.24-1.242 1.33 1.33 0 0 0-1.24-1.239H18.35l2.322-5.807L27.02 28.27c.082.252.246.47.464.62.204.145.447.226.697.231a1 1 0 0 0 .465-.077q.21-.09.387-.232a1.23 1.23 0 0 0 .31-.93.63.63 0 0 0-.072-.538" fill="#242424"/></svg>
